X:246
T:Windbroke
M:4/4
L:1/8
R:reel
C:Mike McGoldrick
D:Lunasa: The Merry Sisters of Fate
N:Learned from Lunasa: The Merry Sisters of Fate
Z:Michael Abraham Shulman
K:Em
|:BE~E2 GABE-|EGAd B2AG|BE~E2 GABc-|cBAG ABAG|
BE~E2 GABE-|EGAd B2AB|edde B2BG|1 A2AG FGAc:|2 A2AG FGA2|
|:Bdgf efde-|eedf efed|Bdgf efga-|aa2g fede|
Bdgf efde-|eedf efeB|1 c2cA B2BG|A2AG FGA2:|2 c8-|cdAG FGAc||
%%text Final Variation:
Bdgf efde-|eedf efeB|c8-|cdAG FGFD|E8||
